X: 381
T: Love For Love
M:C
L:1/16
B:O'Neill's 381
N:"Slow with expression."
N:"collected by J. O'Neill"
N:The first ornament (~) is a turn, the second a mordent.
N:Bar 6 has an extra 1/32, the first 1/8 has a double dot.
Z:Transcribed by Chris Falt, cfalt@trytel.com
K:G
d2|(g3d)(d3B) (~c3de3g)|(dB3) AB({d}c)A G6A2|(Bd3)(gb3) (a^c3)(d3e)|(f3g) (~edef) d6e2|
e4 (agfe) (dg3)(dB3)|(c7/2d/2e/2) d2c2 (c4B2).c2|(dB3) (AG3) g4(G3A)|(B3c) (BABd) G6^G2|
A2c2 (e2db agfg) e2c2|B3c (AG)(AB) .G4-.G2||


